!!!COM: Palestrina, Giovanni Perluigi da
!!!OPR: In semidupl. maj. (II)
!!!OTL: Sanctus
**kern	**kern	**kern	**kern	**kern
*Ibass	*Itenor	*Itenor	*Icalto	*Icant
!Bassus	!Tenor 2	!Tenor 1	!Altus	!Cantus
*clefF4	*clefGv2	*clefGv2	*clefG2	*clefG2
*k[b-]	*k[b-]	*k[b-]	*k[b-]	*k[b-]
*F:ion	*F:ion	*F:ion	*F:ion	*F:ion
*M4/2	*M4/2	*M4/2	*M4/2	*M4/2
=1	=1	=1	=1	=1
0r	0r	0r	1g	1r
.	.	.	2e	1cc
.	.	.	2c	.
=2	=2	=2	=2	=2
0r	0r	0r	4d	2a
.	.	.	4e	.
.	.	.	4f	2f
.	.	.	4d	.
.	.	.	4e	4g
.	.	.	4f	4a
.	.	.	[2g	4b-
.	.	.	.	4g
=3	=3	=3	=3	=3
0r	0r	1r	4g]	1a
.	.	.	4f	.
.	.	.	1f	.
.	.	1c	.	2g
.	.	.	4e	[2cc
.	.	.	4d	.
=4	=4	=4	=4	=4
0r	0r	2A	2e	4cc]
.	.	.	.	4b-
.	.	2F	2f	2a
.	.	4G	2e	2g
.	.	4A	.	.
.	.	4B-	[2d	4f
.	.	4G	.	4e
=5	=5	=5	=5	=5
0r	0r	1A	4d]	4f
.	.	.	4c	4e
.	.	.	1c	4e
.	.	.	.	8d
.	.	.	.	8c
.	.	1G	.	2.d
.	.	.	2B	.
.	.	.	.	4e
=6	=6	=6	=6	=6
1F	0r	1A	1c	4f
.	.	.	.	4g
.	.	.	.	2.a
2D	.	1F	1d	.
.	.	.	.	4f
2BB-	.	.	.	2b-
=7	=7	=7	=7	=7
4C	0r	2r	1e-	2a
4D	.	.	.	.
4E-	.	2c	.	2.g
4C	.	.	.	.
1D	.	2A	2d	.
.	.	.	.	4f
.	.	2F	2B-	[2f
=8	=8	=8	=8	=8
1C	1c	1G	2c	2f]
.	.	.	2G	2e
1FF	2A	1F	2.c	2f
.	2F	.	.	[2cc
.	.	.	4d	.
=9	=9	=9	=9	=9
2C	4G	2E	4e	2cc]
.	4A	.	4f	.
2GG	4B-	4D	2.g	2b-
.	4G	4E	.	.
2D	1A	4F	.	2a
.	.	4G	4f	.
2F	.	4A	[2f	2f
.	.	4F	.	.
=10	=10	=10	=10	=10
0C	0G	0c	2f]	1g
.	.	.	4e	.
.	.	.	4d	.
.	.	.	1e	1cc
=11	=11	=11	=11	=11
[0FF	[0F	[0c	[0f	[0a
=12	=12	=12	=12	=12
0FF]	0F]	0c]	0f]	0a]
=13	=13	=13	=13	=13
0r	0r	0r	1.B-	0r
.	.	.	2c	.
=14	=14	=14	=14	=14
0r	0r	0r	1d	1.f
.	.	.	1B-	.
.	.	.	.	2g
=15	=15	=15	=15	=15
1r	0r	0r	2c	1a
.	.	.	2.d	.
[1BB-	.	.	.	1f
.	.	.	4e	.
.	.	.	[2f	.
=16	=16	=16	=16	=16
2BB-]	1r	0r	2f]	1g
2C	.	.	2e	.
1D	[1F	.	2d	2.f
.	.	.	2A	.
.	.	.	.	4e
=17	=17	=17	=17	=17
1BB-	2F]	0r	1d	2d
.	2G	.	.	1g
2C	1A	.	2c	.
[2D	.	.	2A	[2f
=18	=18	=18	=18	=18
4D]	1F	0r	1d	4f]
4E	.	.	.	4g
1F	.	.	.	4a
.	.	.	.	4b-
.	1G	.	1c	2cc
2E	.	.	.	2g
=19	=19	=19	=19	=19
2.D	2.F	2r	2r	1a
.	.	1F	2.f	.
4C	4E	.	.	.
1BB-	1D	.	.	1b-
.	.	.	4e	.
.	.	2G	2d	.
=20	=20	=20	=20	=20
1FF	2.F	1A	1.c	2a
.	.	.	.	4cc
.	4G	.	.	4b-
1r	4A	1F	.	4a
.	4B-	.	.	4g
.	[2c	.	2A	4f
.	.	.	.	4e
=21	=21	=21	=21	=21
0r	2c]	1G	1B-	2d
.	1B-	.	.	2e
.	.	1F	1c	1f
.	2A	.	.	.
=22	=22	=22	=22	=22
1.BB-	1B-	2.B-	2d	2r
.	.	.	1f	2f
.	.	4c	.	.
.	1r	2d	.	2g
2C	.	4c	2e	[2a
.	.	4B-	.	.
=23	=23	=23	=23	=23
1D	1.F	1A	2.d	2a]
.	.	.	.	2f
.	.	.	4e	.
1BB-	.	1d	2f	1b-
.	2G	.	2B-	.
=24	=24	=24	=24	=24
1F	1A	0c	2c	2a
.	.	.	2F	4cc
.	.	.	.	4b-
1FF	1F	.	2.A	4a
.	.	.	.	4g
.	.	.	.	[2f
.	.	.	4B-	.
=25	=25	=25	=25	=25
0C	0G	2r	0c	2f]
.	.	2.c	.	4e
.	.	.	.	4d
.	.	.	.	1e
.	.	4B-	.	.
.	.	2G	.	.
=26	=26	=26	=26	=26
0FF	2F	2.A	1c	0f
.	4F	.	.	.
.	4G	4G	.	.
.	4A	2.F	2.c	.
.	4B-	.	.	.
.	[2c	.	.	.
.	.	8E	4d	.
.	.	8D	.	.
=27	=27	=27	=27	=27
0r	2c]	0C	4e	2r
.	.	.	4f	.
.	2c	.	2.g	4c
.	.	.	.	4d
.	1c	.	.	4e
.	.	.	4f	4f
.	.	.	2e	[2g
=28	=28	=28	=28	=28
0r	2B	0r	2d	2g]
.	2.c	.	2.e	2g
.	.	.	.	1g
.	4B	.	4d	.
.	4B	.	2d	.
.	8A	.	.	.
.	8G	.	.	.
=29	=29	=29	=29	=29
0r	1A	0r	1c	2f
.	.	.	.	2e
.	4G	.	2d	1g
.	4A	.	.	.
.	4B-	.	2G	.
.	4c	.	.	.
=30	=30	=30	=30	=30
0r	2d	0r	2B-	2f
.	2c	.	2.c	2e
.	1G	.	.	1d
.	.	.	8B	.
.	.	.	8A	.
.	.	.	2B	.
=31	=31	=31	=31	=31
1r	1C	2.G	1c	1e
.	.	4A	.	.
2.BB-	1r	4B-	2F	2.d
.	.	4c	.	.
.	.	[2d	2B-	.
4C	.	.	.	4e
=32	=32	=32	=32	=32
4D	2.F	2d]	0A	4f
4E	.	.	.	4g
1F	.	2c	.	1a
.	4G	.	.	.
.	4A	2.c	.	.
.	4B-	.	.	.
2F	[2c	.	.	2a
.	.	4B-	.	.
=33	=33	=33	=33	=33
1F	2c]	4A	0r	1a
.	.	4G	.	.
.	2c	2F	.	.
2E	[1c	2G	.	2g
[2F	.	2F	.	[2a
=34	=34	=34	=34	=34
4F]	1c]	1C	0r	4a]
4E	.	.	.	4g
4E	.	.	.	4g
8D	.	.	.	8f
8C	.	.	.	8e
1D	2B-	1F	.	1f
.	2A	.	.	.
=35	=35	=35	=35	=35
4C	1c	2G	0r	2e
4D	.	.	.	.
4E	.	2C	.	1g
4F	.	.	.	.
2G	2B-	2E-	.	.
[2F	2A	2F	.	2a
=36	=36	=36	=36	=36
2F]	1G	1C	1r	1.cc
2E	.	.	.	.
2F	2A	1r	2r	.
[2BB-	[2d	.	4B-	[2b-
.	.	.	4c	.
=37	=37	=37	=37	=37
4BB-]	2d]	2.F	4d	2b-]
4C	.	.	4e	.
4D	2d	.	1f	2a
4E	.	4G	.	.
2F	2.c	4A	.	1a
.	.	4B-	.	.
2F	.	[2c	2f	.
.	4B-	.	.	.
=38	=38	=38	=38	=38
4FF	1A	2c]	1f	2cc
4GG	.	.	.	.
4AA	.	2c	.	4c
4BB-	.	.	.	4d
1C	1G	1c	1e	4e
.	.	.	.	4f
.	.	.	.	[2g
=39	=39	=39	=39	=39
2GG	2G	2B-	2d	2g]
2D	4F	2A	1f	1a
.	4G	.	.	.
1AA	4A	1c	.	.
.	4B-	.	.	.
.	4c	.	2e	2a
.	4A	.	.	.
=40	=40	=40	=40	=40
1BB-	1d	2B-	2d	1f
.	.	2A	1f	.
1C	1c	1G	.	2.cc
.	.	.	2e	.
.	.	.	.	4b-
=41	=41	=41	=41	=41
[0FF	[0c	[0F	[0f	[0a
=42	=42	=42	=42	=42
0FF]	0c]	0F]	0f]	0a]
*	*	*	*	*-
!! Pleni
*Ibass	*Itenor	*Icalto	*Icant
!Bassus	!Tenor	!Altus	!Cantus
*clefF4	*clefGv2	*clefG2	*clefG2
*k[b-]	*k[b-]	*k[b-]	*k[b-]
*F:ion	*F:ion	*F:ion	*F:ion
*M4/2	*M4/2	*M4/2	*M4/2
=43	=43	=43	=43
1r	0r	1B-	0r
1BB-	.	1d	.
=44	=44	=44	=44
1D	0r	2.f	0r
.	.	4e-	.
2.F	.	2d	.
.	.	2c	.
4E-	.	.	.
=45	=45	=45	=45
2D	0r	2f	0r
2C	.	2.g	.
1F	.	.	.
.	.	4f	.
.	.	[2f	.
=46	=46	=46	=46
1G	0r	2f]	1r
.	.	2e-	.
1F	.	2d	1f
.	.	[2c	.
=47	=47	=47	=47
0r	1F	4c]	1a
.	.	4B-	.
.	.	4A	.
.	.	4G	.
.	1A	2F	2.cc
.	.	[2f	.
.	.	.	4b-
=48	=48	=48	=48
0r	2.c	2f]	2a
.	.	4e	2g
.	4B-	4d	.
.	2A	2c	2cc
.	2G	2B-	[2dd
=49	=49	=49	=49
0r	1c	1A	4dd]
.	.	.	4cc
.	.	.	1cc
.	1d	1G	.
.	.	.	2b
=50	=50	=50	=50
2r	1c	2r	0cc
1F	.	1A	.
.	1c	.	.
4E	.	4G	.
4D	.	4F	.
=51	=51	=51	=51
2E	1c	2G	0r
2F	.	2A	.
1BB-	1d	2F	.
.	.	[2f	.
=52	=52	=52	=52
1C	2c	2f]	0g
.	1c	4e	.
.	.	4d	.
1r	.	2e	.
.	4B	4d	.
.	4A	4c	.
=53	=53	=53	=53
0r	2B	2d	1g
.	2c	2e	.
.	4F	2c	1a
.	4G	.	.
.	4A	[2f	.
.	4B	.	.
=54	=54	=54	=54
1C	2.c	2f]	0g
.	.	4e	.
.	8B-	4d	.
.	8A	.	.
1C	2G	1e	.
.	[2c	.	.
=55	=55	=55	=55
1D	2c]	2r	1r
.	2B	1f	.
1C	1c	.	2r
.	.	2e-	[2cc
=56	=56	=56	=56
0r	1G	1.d	2cc]
.	.	.	2b-
.	1r	.	2.a
.	.	4c	.
.	.	4B-	4g
=57	=57	=57	=57
0r	0r	1c	2a
.	.	.	2.g
.	.	2B-	.
.	.	.	4f
.	.	2A	[2f
=58	=58	=58	=58
1r	1r	1G	2f]
.	.	.	2e
1F	2r	4F	1f
.	.	4G	.
.	[2c	4A	.
.	.	4F	.
=59	=59	=59	=59
2E-	2c]	2G	0r
2.D	2B-	2F	.
.	2.A	2r	.
4C	.	.	.
4D	.	[2f	.
4BB-	4G	.	.
=60	=60	=60	=60
1C	2A	2f]	1r
.	2.G	2e-	.
2BB-	.	2d	2r
.	4F	.	.
2AA	[2F	2c	[2cc
=61	=61	=61	=61
1GG	4F]	1g	2cc]
.	8E	.	.
.	8D	.	.
.	2E	.	2b-
[1FF	1F	2r	2.a
.	.	[2c	.
.	.	.	4g
=62	=62	=62	=62
2FF]	1r	2c]	2a
2GG	.	2B-	2.g
2AA	2r	2.A	.
.	.	.	4f
2FF	[2c	.	[2f
.	.	4G	.
=63	=63	=63	=63
0r	2c]	2A	2f]
.	2B-	2.G	2e
.	2.A	.	2.f
.	.	4F	.
.	.	[2F	.
.	4G	.	8e
.	.	.	8d
=64	=64	=64	=64
2r	2A	2F]	4c
.	.	.	4d
2C	2.G	2E	4e
.	.	.	4c
2BB-	.	1F	2d
.	4F	.	.
2AA	[2F	.	2c
=65	=65	=65	=65
1GG	2F]	2r	1g
.	2E	1B-	.
2FF	1F	.	[1c
[2F	.	2A	.
=66	=66	=66	=66
2F]	2r	2G	1c]
2E-	1c	2G	.
2.D	.	2F	1r
.	2B-	[2f	.
4C	.	.	.
=67	=67	=67	=67
2D	2.A	2f]	0r
1C	.	2e-	.
.	4G	.	.
.	2A	2c	.
2BB-	[2G	2d	.
=68	=68	=68	=68
2.AA	4G]	1c	2r
.	4F	.	.
.	2.F	.	1cc
8GG	.	.	.
8FF	.	.	.
1GG	.	1r	.
.	8E	.	.
.	8D	.	.
.	2E	.	2b-
=69	=69	=69	=69
2FF	1F	2r	2.a
1F	.	1f	.
.	.	.	4g
.	1c	.	2a
2C	.	2e-	[2g
=70	=70	=70	=70
1D	2B-	2.d	4g]
.	.	.	4f
.	2A	.	1f
.	.	4c	.
2BB-	1G	2d	.
2C	.	[2c	2e
=71	=71	=71	=71
2.D	2F	4c]	[0f
.	.	4B-	.
.	1d	1B-	.
4E	.	.	.
1F	.	.	.
.	2c	2A	.
=72	=72	=72	=72
0BB-	1d	2.B-	0f]
.	.	4c	.
.	1B-	1d	.
=73	=73	=73	=73
[0F	[0A	[0c	[0f
=74	=74	=74	=74
0F]	0A]	0c]	0f]
*-	*-	*-	*-
!! Hosanna
**kern	**kern	**kern	**kern	**kern
*Ibass	*Itenor	*Itenor	*Icalto	*Icant
!Bassus	!Tenor 2	!Tenor 1	!Altus	!Cantus
*clefF4	*clefGv2	*clefGv2	*clefG2	*clefG2
*k[b-]	*k[b-]	*k[b-]	*k[b-]	*k[b-]
*F:ion	*F:ion	*F:ion	*F:ion	*F:ion
*M4/2	*M4/2	*M4/2	*M4/2	*M4/2
=75	=75	=75	=75	=75
0r	0r	0r	1B-	1r
.	.	.	2G	2r
.	.	.	2F	2f
=76	=76	=76	=76	=76
0r	0r	2r	2B-	2d
.	.	2F	2c	2c
.	.	2D	2d	2f
.	.	2C	2e	2g
=77	=77	=77	=77	=77
0r	0r	2F	2f	2a
.	.	2G	4e	2b-
.	.	.	4d	.
.	.	2A	2c	2cc
.	.	2B-	[2f	4b-
.	.	.	.	4a
=78	=78	=78	=78	=78
1r	0r	1c	2f]	1g
.	.	.	2e	.
1BB-	.	2F	2.d	2f
.	.	[2B-	.	[2d
.	.	.	4c	.
=79	=79	=79	=79	=79
2GG	0r	2B-]	2B-	4d]
.	.	.	.	4e
2FF	.	2A	2c	1f
2BB-	.	1G	2d	.
2C	.	.	4c	2e
.	.	.	4B-	.
=80	=80	=80	=80	=80
2D	1r	1F	2A	2f
4BB-	.	.	2d	2f
4C	.	.	.	.
4D	1F	1r	2B-	2d
4E	.	.	.	.
[2F	.	.	2A	2c
=81	=81	=81	=81	=81
2F]	2D	2r	2d	2f
2E	2C	2G	2e	2g
2D	2F	4F	2f	2a
.	.	4D	.	.
4C	2G	2E	4e	[2cc
4BB-	.	.	4d	.
=82	=82	=82	=82	=82
2.AA	2A	2F	2.c	4cc]
.	.	.	.	4b-
.	2.c	1E	.	2a
4BB-	.	.	4d	.
2C	.	.	2e	2g
.	4B-	.	.	.
2FF	2A	[2C	2f	2f
=83	=83	=83	=83	=83
0C	2G	2C]	2e	2g
.	2F	2c	1f	4a
.	.	.	.	4b-
.	1G	1c	.	1cc
.	.	.	2e	.
=84	=84	=84	=84	=84
[0FF	[0F	[0c	[0f	[0a
=85	=85	=85	=85	=85
0FF]	0F]	0c]	0f]	0a]
==	==	==	==	==
*-	*-	*-	*-	*-
!!!CDT: 1525/^1526/-1594/2/2
!!!OCY: Italia
!!!AGN: Mass (Paraphrase)
!!!AST: renaissance, vocal
!!!ASW: Gregorian Mass
!!!PWK: Masses, Book Mantuan II
!!!RNB: Cadence finals: C
!!!YOR: Le Opere Complete, v. 19, p. 87
!!!YOO: Rome, Italy: Fratelli Scalera
!!!END: 1992//
!!!EED: John Miller
!!!YEC: Copyright 2000, John Miller
!!!YEN: United States of America
!!!YEM: Rights to all derivative electronic formats reserved.
!!!YEM: Refer to licensing agreement for further details.
!!!YEM: This file must be accompanied by the licensing agreement.
!!!YEM: A copy of the licensing agreement may be found at http://www.music-cog.ohio-state.edu/HumdrumDatabases/Palestrina/license.txt
!!!EMD: converted to Humdrum by Bret Aarden
